X: 11489
T: Ed Reavy's
R: reel
M: 4/4
K: Gmajor
G2d^c dB=cA|~=F3A dBcB|Azd^c dfeg|1 fdcA BdcA:|2 fdcA BGBd||
fzgf fede|fgag fddz|fgag fdeg|fdcA BGBd|
fzgf fede|fgag fddz|fg~g2 ~g2ag|fdcA BdcA||

